X:575
T:Learned Men
A:Wyresdale, Lancashire
B:H.S.J. Jackson, 1823
L:1/8
M:2/4
O:England
Z:Richard Robinson 
%%TUNEURL: http://www.leeds.ac.uk/music/Info/RRTuneBk/gettune/00000e42.html
%%ID:00000e42
K:D
FAd2 | FAd2 | cdec | fddA |   FAd2 | FAd2 | cdec | d2z2 || \
eedc | eedc | ddcB | ABcd | ! eedc | eedc | BcdB | A3G |\
FAd2 | FAd2 | cdec | fddA |   FAd2 | FAd2 | cdec | d2z2 |]
